svg/color/eth2.svg

<?xml version="1.0" encoding="UTF-8" ?>
<!DOCTYPE svg PUBLIC "-//W3C//DTD SVG 1.1//EN" "http://www.w3.org/Graphics/SVG/1.1/DTD/svg11.dtd">
<svg width="250pt" height="250pt" viewBox="0 0 250 250" version="1.1" xmlns="http://www.w3.org/2000/svg">
<g id="#ffffffff">
<path fill="#ffffff" opacity="1.00" d=" M 0.00 0.00 L 250.00 0.00 L 250.00 250.00 L 0.00 250.00 L 0.00 0.00 M 124.03 1.17 C 99.96 42.40 76.05 83.72 52.00 124.96 C 51.37 126.24 50.23 127.35 50.14 128.83 C 75.00 144.46 99.74 160.36 124.72 175.74 C 149.72 160.40 174.36 144.38 199.31 128.93 C 198.47 125.59 195.69 122.78 194.27 119.55 C 171.85 81.04 149.48 42.48 127.04 3.98 C 126.25 3.01 126.12 1.27 124.69 0.99 L 124.03 1.17 M 50.22 142.01 C 74.83 177.61 99.39 213.26 124.08 248.80 L 124.83 249.01 L 125.68 248.67 C 146.33 218.95 166.81 189.11 187.47 159.39 C 191.18 153.56 195.68 148.15 199.03 142.13 C 174.23 157.62 149.35 173.08 124.80 188.92 L 124.60 188.40 C 99.64 173.21 75.24 157.07 50.22 142.01 Z" />
<path fill="#ffffff" opacity="1.00" d=" M 112.73 42.58 C 112.98 42.43 113.46 42.14 113.71 42.00 C 113.51 58.96 113.79 75.92 113.56 92.88 C 98.90 100.89 84.51 109.42 69.77 117.30 C 70.76 114.07 72.85 111.35 74.47 108.43 C 87.21 86.47 100.01 64.55 112.73 42.58 Z" />
<path fill="#ffffff" opacity="1.00" d=" M 135.78 42.31 L 136.86 42.88 C 151.04 67.54 165.54 92.02 179.66 116.71 C 178.69 116.74 177.80 116.50 176.98 116.00 C 163.29 108.23 149.60 100.44 135.79 92.88 C 135.65 76.03 135.68 59.16 135.78 42.31 Z" />
<path fill="#ffffff" opacity="1.00" d=" M 71.44 129.03 C 85.63 121.47 99.42 113.16 113.59 105.57 C 113.71 122.28 113.62 138.99 113.63 155.70 C 99.47 146.98 85.33 138.16 71.44 129.03 Z" />
<path fill="#ffffff" opacity="1.00" d=" M 135.80 105.64 C 137.49 106.42 139.17 107.24 140.77 108.21 C 153.01 115.41 165.70 121.86 177.74 129.36 C 164.58 137.67 151.39 145.93 138.27 154.30 C 137.67 154.52 136.46 154.95 135.85 155.17 C 135.59 138.68 135.69 122.14 135.80 105.64 Z" />
<path fill="#ffffff" opacity="1.00" d=" M 90.21 180.07 C 98.06 184.73 105.64 189.85 113.47 194.55 C 114.09 200.93 113.60 207.53 113.72 213.99 C 105.57 202.93 97.83 191.51 90.21 180.07 Z" />
<path fill="#ffffff" opacity="1.00" d=" M 135.81 195.00 C 143.68 189.89 151.57 184.64 159.76 180.07 C 152.00 191.05 144.34 202.12 136.83 213.27 L 135.76 213.75 C 135.82 207.50 135.74 201.25 135.81 195.00 Z" />
</g>
<g id="#ffea4dff">
<path fill="#ffea4d" opacity="1.00" d=" M 124.03 1.17 L 124.69 0.99 C 124.67 59.24 124.59 117.49 124.72 175.74 C 99.74 160.36 75.00 144.46 50.14 128.83 C 50.23 127.35 51.37 126.24 52.00 124.96 C 76.05 83.72 99.96 42.40 124.03 1.17 M 112.73 42.58 C 100.01 64.55 87.21 86.47 74.47 108.43 C 72.85 111.35 70.76 114.07 69.77 117.30 C 67.63 119.25 66.33 122.22 65.16 124.88 C 66.80 126.78 69.25 127.85 71.44 129.03 C 85.33 138.16 99.47 146.98 113.63 155.70 C 113.62 138.99 113.71 122.28 113.59 105.57 C 113.65 101.34 113.67 97.10 113.56 92.88 C 113.79 75.92 113.51 58.96 113.71 42.00 C 113.46 42.14 112.98 42.43 112.73 42.58 Z" />
</g>
<g id="#ff9c92ff">
<path fill="#ff9c92" opacity="1.00" d=" M 124.69 0.99 C 126.12 1.27 126.25 3.01 127.04 3.98 C 149.48 42.48 171.85 81.04 194.27 119.55 C 195.69 122.78 198.47 125.59 199.31 128.93 C 174.36 144.38 149.72 160.40 124.72 175.74 C 124.59 117.49 124.67 59.24 124.69 0.99 M 135.78 42.31 C 135.68 59.16 135.65 76.03 135.79 92.88 C 135.67 97.13 135.60 101.39 135.80 105.64 C 135.69 122.14 135.59 138.68 135.85 155.17 C 136.46 154.95 137.67 154.52 138.27 154.30 C 151.39 145.93 164.58 137.67 177.74 129.36 C 179.97 128.00 182.26 126.69 184.28 125.03 C 183.20 122.04 181.34 119.39 179.67 116.71 L 179.66 116.71 C 165.54 92.02 151.04 67.54 136.86 42.88 L 135.78 42.31 Z" />
</g>
<g id="#a5e175ff">
<path fill="#a5e175" opacity="1.00" d=" M 69.77 117.30 C 84.51 109.42 98.90 100.89 113.56 92.88 C 113.67 97.10 113.65 101.34 113.59 105.57 C 99.42 113.16 85.63 121.47 71.44 129.03 C 69.25 127.85 66.80 126.78 65.16 124.88 C 66.33 122.22 67.63 119.25 69.77 117.30 Z" />
</g>
<g id="#d894d2ff">
<path fill="#d894d2" opacity="1.00" d=" M 135.79 92.88 C 149.60 100.44 163.29 108.23 176.98 116.00 C 177.80 116.50 178.69 116.74 179.66 116.71 L 179.67 116.71 C 181.34 119.39 183.20 122.04 184.28 125.03 C 182.26 126.69 179.97 128.00 177.74 129.36 C 165.70 121.86 153.01 115.41 140.77 108.21 C 139.17 107.24 137.49 106.42 135.80 105.64 C 135.60 101.39 135.67 97.13 135.79 92.88 Z" />
</g>
<g id="#53d3e1ff">
<path fill="#53d3e1" opacity="1.00" d=" M 50.22 142.01 C 75.24 157.07 99.64 173.21 124.60 188.40 L 124.80 188.92 C 124.72 208.95 124.70 228.98 124.83 249.01 L 124.08 248.80 C 99.39 213.26 74.83 177.61 50.22 142.01 M 90.21 180.07 C 97.83 191.51 105.57 202.93 113.72 213.99 C 113.60 207.53 114.09 200.93 113.47 194.55 C 105.64 189.85 98.06 184.73 90.21 180.07 Z" />
</g>
<g id="#5a9dedff">
<path fill="#5a9ded" opacity="1.00" d=" M 124.80 188.92 C 149.35 173.08 174.23 157.62 199.03 142.13 C 195.68 148.15 191.18 153.56 187.47 159.39 C 166.81 189.11 146.33 218.95 125.68 248.67 L 124.83 249.01 C 124.70 228.98 124.72 208.95 124.80 188.92 M 135.81 195.00 C 135.74 201.25 135.82 207.50 135.76 213.75 L 136.83 213.27 C 144.34 202.12 152.00 191.05 159.76 180.07 C 151.57 184.64 143.68 189.89 135.81 195.00 Z" />
</g>
</svg>

<?xml version="1.0" encoding="utf-8"?>
<!-- Generator: Adobe Illustrator 26.0.3, SVG Export Plug-In . SVG Version: 6.00 Build 0)  -->
<svg version="1.1" id="Layer_1" xmlns="http://www.w3.org/2000/svg" xmlns:xlink="http://www.w3.org/1999/xlink" x="0px" y="0px"
	 viewBox="0 0 250 250" style="enable-background:new 0 0 250 250;" xml:space="preserve">
<style type="text/css">
	.st0{fill:#FFFFFF;}
	.st1{fill:#FFEA4D;}
	.st2{fill:#FF9C92;}
	.st3{fill:#A5E175;}
	.st4{fill:#D894D2;}
	.st5{fill:#53D3E1;}
	.st6{fill:#5A9DED;}
</style>
<g id="_x23_ffffffff">
	<path class="st0" d="M112.7,42.6c0.2-0.2,0.7-0.4,1-0.6c-0.2,17,0.1,33.9-0.2,50.9c-14.7,8-29,16.5-43.8,24.4c1-3.2,3.1-6,4.7-8.9
		C87.2,86.5,100,64.6,112.7,42.6z"/>
	<path class="st0" d="M135.8,42.3l1.1,0.6c14.2,24.7,28.7,49.1,42.8,73.8c-1,0-1.9-0.2-2.7-0.7c-13.7-7.8-27.4-15.6-41.2-23.1
		C135.6,76,135.7,59.2,135.8,42.3z"/>
	<path class="st0" d="M71.4,129c14.2-7.6,28-15.9,42.1-23.5c0.1,16.7,0,33.4,0,50.1C99.5,147,85.3,138.2,71.4,129z"/>
	<path class="st0" d="M135.8,105.6c1.7,0.8,3.4,1.6,5,2.6c12.2,7.2,24.9,13.7,37,21.2c-13.2,8.3-26.4,16.6-39.5,24.9
		c-0.6,0.2-1.8,0.6-2.4,0.9C135.6,138.7,135.7,122.1,135.8,105.6z"/>
	<path class="st0" d="M90.2,180.1c7.8,4.7,15.4,9.8,23.3,14.5c0.6,6.4,0.1,13,0.2,19.4C105.6,202.9,97.8,191.5,90.2,180.1z"/>
	<path class="st0" d="M135.8,195c7.9-5.1,15.8-10.4,23.9-14.9c-7.8,11-15.4,22-22.9,33.2l-1.1,0.5
		C135.8,207.5,135.7,201.2,135.8,195z"/>
</g>
<g id="_x23_ffea4dff">
	<path class="st1" d="M124,1.2l0.7-0.2c0,58.2-0.1,116.5,0,174.8c-25-15.4-49.7-31.3-74.6-46.9c0.1-1.5,1.2-2.6,1.9-3.9
		C76.1,83.7,100,42.4,124,1.2 M112.7,42.6c-12.7,22-25.5,43.9-38.3,65.8c-1.6,2.9-3.7,5.6-4.7,8.9c-2.1,1.9-3.4,4.9-4.6,7.6
		c1.6,1.9,4.1,3,6.3,4.2c13.9,9.1,28,17.9,42.2,26.7c0-16.7,0.1-33.4,0-50.1c0.1-4.2,0.1-8.5,0-12.7c0.2-17,0-33.9,0.2-50.9
		C113.5,42.1,113,42.4,112.7,42.6z"/>
</g>
<g id="_x23_ff9c92ff">
	<path class="st2" d="M124.7,1c1.4,0.3,1.6,2,2.3,3c22.4,38.5,44.8,77.1,67.2,115.6c1.4,3.2,4.2,6,5,9.4
		c-24.9,15.5-49.6,31.5-74.6,46.8C124.6,117.5,124.7,59.2,124.7,1 M135.8,42.3c-0.1,16.8-0.1,33.7,0,50.6c-0.1,4.2-0.2,8.5,0,12.8
		c-0.1,16.5-0.2,33,0.1,49.5c0.6-0.2,1.8-0.6,2.4-0.9c13.1-8.4,26.3-16.6,39.5-24.9c2.2-1.4,4.5-2.7,6.5-4.3c-1.1-3-2.9-5.6-4.6-8.3
		h0C165.5,92,151,67.5,136.9,42.9L135.8,42.3z"/>
</g>
<g id="_x23_a5e175ff">
	<path class="st3" d="M69.8,117.3c14.7-7.9,29.1-16.4,43.8-24.4c0.1,4.2,0.1,8.5,0,12.7c-14.2,7.6-28,15.9-42.1,23.5
		c-2.2-1.2-4.6-2.2-6.3-4.2C66.3,122.2,67.6,119.2,69.8,117.3z"/>
</g>
<g id="_x23_d894d2ff">
	<path class="st4" d="M135.8,92.9c13.8,7.6,27.5,15.4,41.2,23.1c0.8,0.5,1.7,0.7,2.7,0.7h0c1.7,2.7,3.5,5.3,4.6,8.3
		c-2,1.7-4.3,3-6.5,4.3c-12-7.5-24.7-13.9-37-21.2c-1.6-1-3.3-1.8-5-2.6C135.6,101.4,135.7,97.1,135.8,92.9z"/>
</g>
<g id="_x23_53d3e1ff">
	<path class="st5" d="M50.2,142c25,15.1,49.4,31.2,74.4,46.4l0.2,0.5c-0.1,20-0.1,40.1,0,60.1l-0.8-0.2
		C99.4,213.3,74.8,177.6,50.2,142 M90.2,180.1c7.6,11.4,15.4,22.9,23.5,33.9c-0.1-6.5,0.4-13.1-0.2-19.4
		C105.6,189.9,98.1,184.7,90.2,180.1z"/>
</g>
<g id="_x23_5a9dedff">
	<path class="st6" d="M124.8,188.9c24.6-15.8,49.4-31.3,74.2-46.8c-3.4,6-7.9,11.4-11.6,17.3c-20.7,29.7-41.1,59.6-61.8,89.3
		l-0.8,0.3C124.7,229,124.7,208.9,124.8,188.9 M135.8,195c-0.1,6.2,0,12.5-0.1,18.8l1.1-0.5c7.5-11.2,15.2-22.2,22.9-33.2
		C151.6,184.6,143.7,189.9,135.8,195z"/>
</g>
</svg>
